X: 1
T: Oh Gee
M: 4/4
L: 1/8
R: reel
K: Gmaj
D/E/F|:G2BG dGBd|bgaf gedB|G2BG dGBG|FADF ADFA|
G2BG dGBd|bgaf gede|gage dBGA|1 BGAF GFED:|2 BGAF G3A||
Beed e2ef|gfga gfeg|fdd^c defg|a2ab afed|
Beed e2ef|gfga bafa|dfab afde|1 feed e2ed:|2 fde^c dBAF||
